X:1
T:Title
%%score { 1 | 2 }
L:1/8
M:6/8
K:Db
V:1 treble nm="Grand Piano"
V:2 bass 
V:1
 z3 z2[Q:1/4=90] A | A>BA FED | B3 A2 [FA] | c>BA GA>G | F3- F2 A | A>BA FED | B3 A2 F | %7
 E=GB dc>B |[M:5/8] [CEA]-[CEA]- [CEA]3 |[M:1/8] A |[M:3/4] c>c cc BA | [FA]>[GB] [FA] [Fd]2 [Ad] | %12
 [Fd]>[Fd] [Ad][=Gd] [Gc][GB] |[M:7/8] [=GB]>[Gc][Gd] e3 A |[M:3/4] [Fd]<[Fd] [Fd][Fd] [FA]F | %15
[M:13/16] GB>e[Ge][GB]3/2[=Gd] |[M:3/4] [EAc]>[EAc] [EAc][CGA] [GB][Gc] | %17
[M:5/8] [Fd]-[Fd]- [Fd]3 |] %18
V:2
 z3 z2 [D,F,D] | [D,F,D]>[D,G,D][D,F,D] [D,A,D][D,G,D][D,F,] | [D,G,D]3 [D,F,D]2 [D,A,] | %3
 [A,G]>[A,CG][A,DF] [A,E][A,DF]>[K:bass][A,E] | [D,A,D]3- [D,A,D]2 [D,F,D] | %5
 [D,F,D]>[D,G,D][D,F,D] [D,A,D][D,G,D][D,F,] | [D,G,D]3 [D,F,D]2 [D,A,D] | %7
 [E,A,C][E,B,E][E,=G,E] [E,G,E][E,A,E]>[E,DE] |[M:5/8] A,,-A,,- A,,3 |[M:1/8][K:treble] [A,CE] | %10
[M:3/4] [A,EG]>[A,EG] [A,EG][A,EG] [A,DG][A,CG] | [D,D]>[D,D] [D,D] [D,A,]2 [F,D] | %12
 [B,D]>[B,D] [F,D][E,B,] [E,B,][E,E] |[M:7/8] [E,D]>[E,C][E,B,][K:treble] [A,CG]3 [A,G] | %14
[M:3/4][K:bass] [D,A,]<[D,A,] [D,A,][D,A,] [D,A,][D,A,D] | %15
[M:13/16] [G,B,E][G,B,E]>[G,B,G][E,B,][E,E]3/2[E,E] |[M:3/4] A,>A, A,A,, [A,,A,][A,,A,] | %17
[M:5/8] [D,A,]-[D,A,]- [D,A,]3 |] %18

